icon/pk/repair.svg

<svg viewBox="0 0 48 48" fill="none" xmlns="http://www.w3.org/2000/svg" height="1em" width="1em">
  <path d="M17 14L29 14" stroke="black" stroke-width="4" stroke-linecap="round" stroke-linejoin="round"/>
  <path d="M23 28L23 15" stroke="black" stroke-width="4" stroke-linecap="round" stroke-linejoin="round"/>
  <path d="M20.1429 42H8C6.89543 42 6 41.1046 6 40V7C6 5.89543 6.89543 5 8 5H40C41.1046 5 42 5.89543 42 7V16.7167" stroke="black" stroke-width="4" stroke-linecap="round" stroke-linejoin="round"/>
  <path d="M27 38L37.5 23.5L42 27L31 42H27V38Z" fill="#2F88FF" stroke="black" stroke-width="4" stroke-linecap="round" stroke-linejoin="round"/>
</svg>

<svg width="48" height="48" fill="none" xmlns="http://www.w3.org/2000/svg"><path d="M17 14h12M23 28V15M20.143 42H8a2 2 0 0 1-2-2V7a2 2 0 0 1 2-2h32a2 2 0 0 1 2 2v9.717" stroke="#000" stroke-width="4" stroke-linecap="round" stroke-linejoin="round"/><path d="m27 38 10.5-14.5L42 27 31 42h-4v-4Z" fill="#2F88FF" stroke="#000" stroke-width="4" stroke-linecap="round" stroke-linejoin="round"/></svg>
